!!!SOCIAL_FUNCTION:	love songs
!!!PDT:	1909
!!!OTL: No_137_I_Do_Not_Care_For_You_Any_More.krn
!!!REG: Great_Lakes
!!!LANG: Non-Tone
!!!LING_GROUP: Algonquin
**kern
*staff1
*clefF4
*k[b-e-a-]
*M3/4
8.c\L
16c\Jk
=1
4c\
8G\L
8G\J
4c\
=2
4.G\
8c\
8G\L
8G\J
=3
2F\
8r
8c\
=4||
*M2/4
8.c\L
16G\Jk
4G\
=5
8E-\L
8E-\J
4F\
=6
8.E-\L
16F\Jk
8E-\L
8E-\J
=7||
*M3/4
4.C/
8C/
8C/L
8G/J
=8
4.F\
8C/
4G\
=9
4.F\
8F\
8E-/L
[8C/J
=10||
*M2/4
2C/]
==
*-
